Numix-GalliumOS/22/mimetypes/text-x-copying.svg

<?xml version="1.0" encoding="UTF-8" standalone="no"?>
<svg
   xmlns:dc="http://purl.org/dc/elements/1.1/"
   xmlns:cc="http://creativecommons.org/ns#"
   xmlns:rdf="http://www.w3.org/1999/02/22-rdf-syntax-ns#"
   xmlns:svg="http://www.w3.org/2000/svg"
   xmlns="http://www.w3.org/2000/svg"
   xmlns:sodipodi="http://sodipodi.sourceforge.net/DTD/sodipodi-0.dtd"
   xmlns:inkscape="http://www.inkscape.org/namespaces/inkscape"
   width="22"
   height="22"
   viewBox="0 0 22 22"
   id="svg2"
   version="1.1"
   inkscape:version="0.48.5 r10040"
   sodipodi:docname="text-x-copying.svg">
  <metadata
     id="metadata20">
    <rdf:RDF>
      <cc:Work
         rdf:about="">
        <dc:format>image/svg+xml</dc:format>
        <dc:type
           rdf:resource="http://purl.org/dc/dcmitype/StillImage" />
      </cc:Work>
    </rdf:RDF>
  </metadata>
  <defs
     id="defs18" />
  <sodipodi:namedview
     pagecolor="#ffffff"
     bordercolor="#666666"
     borderopacity="1"
     objecttolerance="10"
     gridtolerance="10"
     guidetolerance="10"
     inkscape:pageopacity="0"
     inkscape:pageshadow="2"
     inkscape:window-width="1280"
     inkscape:window-height="970"
     id="namedview16"
     showgrid="true"
     inkscape:zoom="20.85965"
     inkscape:cx="5.390721"
     inkscape:cy="11.487693"
     inkscape:window-x="0"
     inkscape:window-y="0"
     inkscape:window-maximized="1"
     inkscape:current-layer="svg2">
    <inkscape:grid
       type="xygrid"
       id="grid3008"
       empspacing="5"
       visible="true"
       enabled="true"
       snapvisiblegridlinesonly="true" />
  </sodipodi:namedview>
  <path
     style="fill:#dcdcdc"
     d="m 4,-1e-7 c -0.472657,0 -1,0.527344 -1,1 L 3,21 c 0,0.445312 0.554687,1 1,1 l 14,0 c 0.445313,0 0.992367,-0.554753 1,-1 l 0,-15.0000001 -6,-6 z"
     id="path4-2"
     inkscape:connector-curvature="0"
     sodipodi:nodetypes="ssssssccs" />
  <path
     style="fill:#000000;fill-opacity:0.19599998"
     d="M 14,5.9999999 19,11 19,5.9999999 z"
     id="path6"
     inkscape:connector-curvature="0"
     sodipodi:nodetypes="cccc" />
  <path
     style="fill:#ffffff;fill-opacity:0.39200003"
     d="m 13,-1e-7 6,6 -5,0 c -0.445312,0 -1,-0.554688 -1,-1 z"
     id="path8"
     inkscape:connector-curvature="0"
     sodipodi:nodetypes="ccssc" />
  <g
     style="fill:#888888"
     id="g10"
     transform="matrix(1.8007035,0,0,1.7996484,-3.4056283,-2.5957808)">
    <path
       d="m 8,5.332031 c -1.839844,0 -3.332031,1.492188 -3.332031,3.335938 C 4.667969,10.507812 6.160156,12 8,12 9.839844,12 11.332031,10.507812 11.332031,8.667969 11.332031,6.824219 9.839844,5.332031 8,5.332031 z M 8,6 c 1.472656,0 2.667969,1.195312 2.667969,2.667969 0,1.472656 -1.195313,2.664062 -2.667969,2.664062 -1.472656,0 -2.667969,-1.191406 -2.667969,-2.664062 C 5.332031,7.195312 6.527344,6 8,6 z"
       id="path12"
       inkscape:connector-curvature="0" />
    <path
       d="m 8.050781,7.351562 c -0.347656,0 -0.617187,0.117188 -0.808593,0.351563 C 7.050781,7.9375 6.953125,8.261719 6.953125,8.679688 c 0,0.867187 0.367187,1.300781 1.097656,1.300781 0.308594,0 0.679688,-0.070313 1.117188,-0.207031 l 0,0.695312 c -0.359375,0.132812 -0.757813,0.199219 -1.203125,0.199219 -0.636719,0 -1.121094,-0.171875 -1.460938,-0.515625 C 6.167969,9.808594 6,9.316406 6,8.671875 6,8.269531 6.082031,7.914062 6.25,7.613281 6.414062,7.304688 6.652344,7.074219 6.960938,6.910156 7.273438,6.75 7.636719,6.667969 8.050781,6.667969 c 0.425781,0 0.855469,0.089843 1.28125,0.273437 L 9.035156,7.613281 C 8.871094,7.542969 8.707031,7.480469 8.539062,7.429688 8.375,7.378906 8.210938,7.351562 8.050781,7.351562"
       id="path14"
       inkscape:connector-curvature="0" />
  </g>
</svg>

<svg xmlns="http://www.w3.org/2000/svg" viewBox="0 0 22 22">
 <path d="m 4 0 c -0.473 0 -1 0.527 -1 1 l 0 20 c 0 0.445 0.555 1 1 1 l 14 0 c 0.445 0 0.992 -0.555 1 -1 l 0 -15 -6 -6 z" style="fill:#dcdcdc"/>
 <path d="m 14 6 5 5 0 -5 z" style="fill:#000;fill-opacity:0.196"/>
 <path d="m 13 0 6 6 -5 0 c -0.445 0 -1 -0.555 -1 -1 z" style="fill:#fff;fill-opacity:0.392"/>
 <g transform="matrix(1.8007035,0,0,1.7996484,-3.4056283,-2.5957808)" style="fill:#888">
  <path d="m 8 5.332 c -1.84 0 -3.332 1.492 -3.332 3.336 c 0 1.84 1.492 3.332 3.332 3.332 1.84 0 3.332 -1.492 3.332 -3.332 0 -1.844 -1.492 -3.336 -3.332 -3.336 z m 0 0.668 c 1.473 0 2.668 1.195 2.668 2.668 0 1.473 -1.195 2.664 -2.668 2.664 -1.473 0 -2.668 -1.191 -2.668 -2.664 c 0 -1.473 1.195 -2.668 2.668 -2.668 z"/>
  <path d="m 8.05 7.352 c -0.348 0 -0.617 0.117 -0.809 0.352 c -0.191 0.234 -0.289 0.559 -0.289 0.977 c 0 0.867 0.367 1.301 1.098 1.301 0.309 0 0.68 -0.07 1.117 -0.207 l 0 0.695 c -0.359 0.133 -0.758 0.199 -1.203 0.199 -0.637 0 -1.121 -0.172 -1.461 -0.516 c -0.336 -0.344 -0.504 -0.836 -0.504 -1.48 0 -0.402 0.082 -0.758 0.25 -1.059 0.164 -0.309 0.402 -0.539 0.711 -0.703 0.313 -0.16 0.676 -0.242 1.09 -0.242 c 0.426 0 0.855 0.09 1.281 0.273 l -0.297 0.672 c -0.164 -0.07 -0.328 -0.133 -0.496 -0.184 -0.164 -0.051 -0.328 -0.078 -0.488 -0.078"/>
 </g>
</svg>
